icons/linear-new-people-double.svg

<svg xmlns="http://www.w3.org/2000/svg" width="32px" height="32px" viewBox="0 0 32 32" version="1.1">
    <title>linear-new-people-double</title>
    <g id="linear-new-people-double" stroke-width="1" fill-rule="evenodd">
        <path d="M13,3 C16.8659932,3 20,6.13400675 20,10 C20,13.8659932 16.8659932,17 13,17 C9.13400675,17 6,13.8659932 6,10 C6,6.13400675 9.13400675,3 13,3 Z M20,3 C23.8659932,3 27,6.13400675 27,10 C27,13.8659932 23.8659932,17 20,17 C19.5852818,17 19.178987,16.9639352 18.7840807,16.8947707 C19.4441012,16.3411873 20.0228533,15.6946104 20.5009065,14.975329 C23.0270268,14.7240553 25,12.5924339 25,10 C25,7.40756606 23.0270268,5.27594469 20.500702,5.02475737 C20.0228533,4.30538959 19.4441012,3.65881265 18.7847737,3.10506351 C19.178987,3.03606484 19.5852818,3 20,3 Z M13,5 C10.2385763,5 8,7.23857625 8,10 C8,12.7614237 10.2385763,15 13,15 C15.7614237,15 18,12.7614237 18,10 C18,7.23857625 15.7614237,5 13,5 Z M22.8970207,18.9980781 L25,19 C27.7614237,19 30,21.2385763 30,24 L30,28 C30,28.5522847 29.5522847,29 29,29 L24.9990207,28.9990781 L24.9990207,26.9990781 L28,27 L28,24 C28,22.4023191 26.75108,21.0963391 25.1762728,21.0050927 L25,21 L24.3260191,20.9992639 C23.9695551,20.2491159 23.4835915,19.5724232 22.8970207,18.9980781 Z M18,19 C20.7614237,19 23,21.2385763 23,24 L23,28 C23,28.5522847 22.5522847,29 22,29 L4,29 C3.44771525,29 3,28.5522847 3,28 L3,24 C3,21.2385763 5.23857625,19 8,19 L18,19 Z M18,21 L8,21 C6.34314575,21 5,22.3431458 5,24 L5,27 L21,27 L21,24 C21,22.4023191 19.75108,21.0963391 18.1762728,21.0050927 L18,21 Z" id="&#24418;&#29366;" fill-rule="nonzero" />
    </g>
</svg>

<svg xmlns="http://www.w3.org/2000/svg" viewBox="0 0 32 32"><path fill="currentColor" d="M13 3a7 7 0 1 1 0 14 7 7 0 0 1 0-14m7 0a7 7 0 1 1-1.216 13.895 9.029 9.029 0 0 0 1.717-1.92 5 5 0 0 0 0-9.95 9.041 9.041 0 0 0-1.716-1.92C19.179 3.036 19.585 3 20 3m-7 2a5 5 0 1 0 0 10 5 5 0 0 0 0-10m9.897 13.998L25 19a5 5 0 0 1 5 5v4a1 1 0 0 1-1 1h-4.001v-2H28v-3a3 3 0 0 0-2.824-2.995L25 21h-.674a7.018 7.018 0 0 0-1.429-2.002M18 19a5 5 0 0 1 5 5v4a1 1 0 0 1-1 1H4a1 1 0 0 1-1-1v-4a5 5 0 0 1 5-5zm0 2H8a3 3 0 0 0-3 3v3h16v-3a3 3 0 0 0-2.824-2.995z"/></svg>
